X:1
T:Turkisk polska Kaytagi
R:Polska
O:Turkiet
S:Sven Midgren
M:3/4
L:1/8
K:Dm
|: d>^c de fe | d>^c dA BG | A/G/A/B/ AG FE | DE FG A^c | d>^c de fe | d>^c dA BG | A/G/A/B/ AG FE | DF Ad z2   :|
|B2 AG- G2- | Gd cB AG | A2 GF- F2- | Fc BA GF | G2 FE- E2- | EB AG FE | F2 ED- D2- | DE ^FG Ac | 
B2 AG- G2- | Gd cB AG | A2 GF- F2- | Fc BA GF | G2 FE- E2- | EB AG FE |  DF Ad z2  ||

